X:3
T:Mui\~neira De Cabana
R:muineira
H:Original key Cm
D:Milladoiro
O:Galicia
Z:id:hn-muineira-3
M:6/8
L:1/8
K:Dm
d2^c | ABA GEG | FED D^CD | EFG A2c | B2A d2^c |
ABA GEG | FED D^CD | EFG GFE | D3 :|
|: DEF | D2D D^CD | E2E EFG | A2F G2E | FED DEF |
D2D D^CD | E2E EFG | ABA GFE | D3 :|
K:D
|: FGA | AFD BGB | AFD FED | CEG BGB | AFD FGA |
AFD BGB | AFD FED | CBA GFE | D3 :|

